X: 76
T: SLIDES: Denny Mescall's Set
T: Bank of Turf
C: C: Trad. / Trad. / Mike Scott; S: Aoife Granville / Jonas Sarajarvi; Séamus Begley
C: Set Leaders: Mars, Anton
Z: Mars Agliullin ed., Anton Zille ed., Oleg Naumov arr.; Mars at The Session
N: https://thesession.org/members/26966/sets/94265
R: Single Jig
M: 12/8
L: 1/8
Q: 3/8=130
K: Dmaj
d2 B|:"D"ABA DFA "G"BAF "D"DFA|"D"dAA "A"eAA "D"~f3 def|
"G"~g3 gab "D"afd Bcd|1 "Em"efe ~e2d "A"cBA Bcd:|2 "A"ABA efe "D"d3 dcd||
|:"A"e2A efg "D"f2d fga|"G"gfe "D"fed "A"edB ABd|
"A"eAA efg "D"fdd fga|1 "G"gfe "D"dcB "A"A3 ABd:|2 "G"gfe "D"dcB "A"AFA Bcd||
T: Denny Mescall's
R: Slide
K: Gmaj
|:"G"~B3 BAB dBA G3|"G/B"GBd g2e "C"d2B "D"A2G|
"G"~B3 BAB dBA "(D)"G2B|1 "Em"ded "D"cBA "G"G3 "(C)"G3:|2 "Em"ded "D"cBA "G"G3 GBd||
|: "G"~g3 gfe d2B "G/B"c2d|"Cadd9"e2a "D"a2b a2g e2f|
"Em"~g3 gfe "D/B"d2B c2d|"C"efg "D"fga "G"g3 g3:||
T: Kings of Kerry
K: Amaj
"A"c3 cBA F2A E2A|"A"F2A E2c "E"B3 BAB|
"A"c3 cBA F2A E2f|1 "D"ecA "E"BcB "A"A3 A2B:|2 "D"ecA "E"BcB "A"A3 Ace||
"F#m"a3 afe "D"f2a e2A|"A"c3 cBA "E"B3 Bce|
"F#m"a3 afe "D"f2a e2f|"D"ecA "E"BcB "A"A3 Ace|
"F#m"a3 afe "D"f2a e2A|"A"c3 cBA "E"B3 BAB|
"F#m"c3 cBA "D"F2A E2f|"E"ecA BcB A3 A3||

